X: 1
T: The Mist On The Mountain
R: waltz
M: 3/4
L: 1/8
K: Amin
A3|A3|e>de|edB| G3|G2A|B>AB|A>GE |c3|d3|
e>^fg|B>AG|A>Be|dcB|A3|A3||
e3|e3| deg|edB| G2G|d2B|e2e|d>cB|A3| c3|
d>eg|B>AG|A>Be|dcB|A3|A3||


Tune 470	Setting 13356

